themes/ColwichTheme/static/images/icons/volunteer.svg

<svg viewBox="0 0 512 512" xmlns="http://www.w3.org/2000/svg"><path d="m383.1 359.8c0 10.27-4.155 20.54-12.47 28.38l-60.47 57.08c-1.953 1.846-4.517 2.769-7.08 2.769s-5.127-.9229-7.08-2.769l-60.47-57.08c-8.291-7.836-12.44-18.1-12.44-28.37 0-12.94 10.61-39.78 41.74-39.78 11.65 0 23.39 4.401 32.1 12.64l6.158 5.799 6.16-5.799c8.729-8.238 20.47-12.64 32.11-12.64 32.242-.93 41.742 26.77 41.742 39.77z"/><path d="m448 96c-17.67 0-32 14.33-32 32v112c0 8.8-7.2 16-16 16s-15.93-7.164-15.93-16l-.07-176c0-17.67-14.33-32-32-32s-32 14.33-32 32l.0498 176c0 8.836-7.219 16-16.06 16s-15.95-7.164-15.95-16l-.0398-208c0-17.67-14.33-32-32-32s-32 14.33-32 32l.0729 208c.0271 8.8-7.2729 16-16.0729 16s-15.9-7.2-15.9-16l-.1-176c0-17.67-14.33-32-32-32s-32 14.33-32 32v279.4l-59.72-59.7c-7.81-7.8-18.05-11.7-28.28-11.7-21.32 0-40 17.2-40 40 0 10.23 3.906 20.47 11.72 28.28l113.1 113.1c37.78 37.82 88.08 58.62 141.48 58.62h37.7c97.05 0 176-78.95 176-176v-208c0-17.7-14.3-32-32-32zm-64.9 263.8c0 10.27-4.155 20.54-12.47 28.38l-60.47 57.08c-1.953 1.846-4.517 2.769-7.08 2.769s-5.127-.9229-7.08-2.769l-60.47-57.08c-8.291-7.836-12.44-18.1-12.44-28.37 0-12.94 10.61-39.78 41.74-39.78 11.65 0 23.39 4.401 32.1 12.64l6.158 5.799 6.16-5.799c8.729-8.238 20.47-12.64 32.11-12.64 32.242-.93 41.742 26.77 41.742 39.77z" opacity=".4"/></svg>

<svg xmlns="http://www.w3.org/2000/svg" viewBox="0 0 512 512"><!--! Font Awesome Pro 6.1.1 by @fontawesome - https://fontawesome.com License - https://fontawesome.com/license (Commercial License) Copyright 2022 Fonticons, Inc. --><defs><style>.fa-secondary{opacity:.4}</style></defs><path class="fa-primary" d="M383.1 359.8c0 10.27-4.155 20.54-12.47 28.38l-60.47 57.08c-1.953 1.846-4.517 2.769-7.08 2.769s-5.127-.9229-7.08-2.769l-60.47-57.08c-8.291-7.836-12.44-18.1-12.44-28.37c0-12.94 10.61-39.78 41.74-39.78c11.65 0 23.39 4.401 32.1 12.64l6.158 5.799l6.16-5.799c8.729-8.238 20.47-12.64 32.11-12.64C373.6 319.1 383.1 346.8 383.1 359.8z"/><path class="fa-secondary" d="M448 96c-17.67 0-32 14.33-32 32v112C416 248.8 408.8 256 400 256s-15.93-7.164-15.93-16L384 64c0-17.67-14.33-32-32-32s-32 14.33-32 32l.0498 176c0 8.836-7.219 16-16.06 16s-15.95-7.164-15.95-16L288 32c0-17.67-14.33-32-32-32S224 14.33 224 32l.0729 208C224.1 248.8 216.8 256 208 256S192.1 248.8 192.1 240L192 64c0-17.67-14.33-32-32-32S128 46.33 128 64v279.4L68.28 283.7C60.47 275.9 50.23 272 40 272C18.68 272 0 289.2 0 312c0 10.23 3.906 20.47 11.72 28.28l113.1 113.1C162.6 491.2 212.9 512 266.3 512H304c97.05 0 176-78.95 176-176V128C480 110.3 465.7 96 448 96zM383.1 359.8c0 10.27-4.155 20.54-12.47 28.38l-60.47 57.08c-1.953 1.846-4.517 2.769-7.08 2.769s-5.127-.9229-7.08-2.769l-60.47-57.08c-8.291-7.836-12.44-18.1-12.44-28.37c0-12.94 10.61-39.78 41.74-39.78c11.65 0 23.39 4.401 32.1 12.64l6.158 5.799l6.16-5.799c8.729-8.238 20.47-12.64 32.11-12.64C373.6 319.1 383.1 346.8 383.1 359.8z"/></svg>
